public/home/btn-apply.svg

<svg width="117" height="53" viewBox="0 0 117 53" fill="none" xmlns="http://www.w3.org/2000/svg">
<g clip-path="url(#clip0_129_420)">
<path d="M37.9135 26.7579C38.0458 27.3018 38.2547 27.8109 38.5263 28.2921C38.7979 28.7733 39.1392 29.2057 39.5501 29.5892C39.961 29.9728 40.4415 30.2796 40.9986 30.5097L39.961 32.0091C39.181 31.6743 38.5333 31.2001 38.011 30.5864C37.4886 29.9728 37.0777 29.2614 36.7783 28.4455C36.4788 29.3172 36.0679 30.0983 35.5317 30.7817C35.0024 31.4651 34.3408 31.9812 33.5677 32.3368L32.4883 30.8236C33.0454 30.5725 33.5329 30.2447 33.9438 29.8263C34.3547 29.4079 34.7029 28.9546 34.9745 28.4525C35.2461 27.9504 35.4551 27.4064 35.5874 26.8416C35.7197 26.2697 35.7894 25.6979 35.7894 25.133V24.4008H33.0245V22.8317H40.4554V24.4008H37.7185V25.133C37.7185 25.67 37.7881 26.2139 37.9204 26.7579H37.9135ZM41.6742 34.8404V21.5625H43.5754V34.8404H41.6742Z" fill="#B1B1B1"/>
<path d="M47.4457 34.6025V30.6553H49.2913V28.884C48.7063 28.9119 48.1421 28.9328 47.592 28.9398C47.0418 28.9468 46.5195 28.9538 46.025 28.9538L45.7812 27.4405C46.3871 27.4405 47.0348 27.4405 47.7243 27.4265C48.4138 27.4196 49.1241 27.3986 49.8554 27.3707C50.5866 27.3428 51.3179 27.301 52.0561 27.2452C52.7943 27.1894 53.5116 27.1197 54.215 27.036L54.3473 28.3889C53.832 28.4865 53.3096 28.5632 52.7873 28.619C52.265 28.6748 51.7288 28.7236 51.1855 28.7655V31.276H49.3609V33.0892H57.2932V34.6025H47.4596H47.4457ZM48.7132 26.5757C48.3093 26.4572 47.9611 26.2968 47.6686 26.0946C47.3761 25.8853 47.1463 25.6413 46.9861 25.3553C46.8259 25.0694 46.7423 24.7417 46.7423 24.386C46.7423 24.0303 46.8259 23.7096 46.9861 23.4167C47.1463 23.1238 47.3761 22.8727 47.6686 22.6635C47.9611 22.4543 48.3093 22.2939 48.7132 22.1823C49.1171 22.0638 49.5629 22.008 50.0504 22.008C50.5379 22.008 50.9696 22.0638 51.3736 22.1823C51.7775 22.3009 52.1257 22.4613 52.4182 22.6635C52.7107 22.8727 52.9405 23.1168 53.1007 23.4167C53.2609 23.7096 53.3445 24.0373 53.3445 24.386C53.3445 24.7347 53.2609 25.0625 53.1007 25.3553C52.9405 25.6413 52.7107 25.8923 52.4182 26.0946C52.1257 26.3038 51.7775 26.4642 51.3736 26.5757C50.9696 26.6943 50.5309 26.7501 50.0504 26.7501C49.5698 26.7501 49.1171 26.6943 48.7132 26.5757ZM48.95 23.6398C48.6784 23.8072 48.5391 24.0582 48.5391 24.379C48.5391 24.6998 48.6784 24.9509 48.95 25.1113C49.2216 25.2717 49.5907 25.3553 50.0504 25.3553C50.51 25.3553 50.8513 25.2717 51.1298 25.1113C51.4084 24.9509 51.5477 24.6998 51.5477 24.379C51.5477 24.0582 51.4084 23.8072 51.1298 23.6398C50.8513 23.4725 50.4891 23.3888 50.0504 23.3888C49.6116 23.3888 49.2216 23.4725 48.95 23.6398ZM56.9937 21.5547V31.6177H55.0925V30.5647H52.5993V29.2676H55.0925V21.5547H56.9937Z" fill="#B1B1B1"/>
<path d="M66.7242 25.0354H59.0078V23.5221H61.9467V21.7926H63.848V23.5221H66.7242V25.0354ZM64.238 26.0187C64.6489 26.1721 64.9971 26.3953 65.2966 26.6742C65.596 26.9601 65.8258 27.2949 65.993 27.6784C66.1601 28.062 66.2437 28.4874 66.2437 28.9476C66.2437 29.4079 66.1601 29.8472 65.993 30.2378C65.8258 30.6283 65.5891 30.963 65.2966 31.2489C64.9971 31.5349 64.6489 31.7511 64.238 31.9045C63.8271 32.0579 63.3883 32.1346 62.9078 32.1346C62.4273 32.1346 61.9816 32.0579 61.5707 31.9045C61.1598 31.7511 60.7976 31.5349 60.4982 31.2489C60.1987 30.963 59.9619 30.6283 59.7948 30.2378C59.6276 29.8472 59.5441 29.4218 59.5441 28.9476C59.5441 28.4734 59.6276 28.062 59.7948 27.6784C59.9619 27.2949 60.1987 26.9601 60.4982 26.6742C60.7976 26.3883 61.1598 26.1721 61.5707 26.0187C61.9816 25.8653 62.4273 25.7886 62.9078 25.7886C63.3883 25.7886 63.8341 25.8653 64.238 26.0187ZM64.0221 30.1471C64.3076 29.8612 64.4469 29.4637 64.4469 28.9407C64.4469 28.4176 64.3076 28.048 64.0221 27.7551C63.7366 27.4692 63.3675 27.3228 62.9078 27.3228C62.4482 27.3228 62.0721 27.4622 61.7866 27.7482C61.501 28.0341 61.3548 28.4316 61.3548 28.9546C61.3548 29.4776 61.501 29.8751 61.7866 30.1541C62.0721 30.433 62.4482 30.5725 62.9078 30.5725C63.3675 30.5725 63.7435 30.433 64.0221 30.1471ZM69.4821 34.8404H67.5808V21.5625H69.4821V26.7509H71.3833V28.32H69.4821V34.8334V34.8404Z" fill="#B1B1B1"/>
<path d="M79.1339 25.8229C78.9389 26.7434 78.6116 27.6151 78.145 28.424C77.6784 29.24 77.0586 29.9931 76.2786 30.6905C75.4986 31.3879 74.5236 32.0225 73.3396 32.5873L72.3438 31.088C73.1864 30.6835 73.9177 30.2511 74.5305 29.7839C75.1434 29.3167 75.6588 28.8076 76.0696 28.2636C76.4805 27.7127 76.8009 27.1269 77.0307 26.4923C77.2536 25.8577 77.3998 25.1743 77.4695 24.4421H73.0471V22.9288H79.4125C79.4125 23.94 79.315 24.9023 79.127 25.8298L79.1339 25.8229ZM81.453 34.8189V21.541H83.3682V34.8189H81.453Z" fill="#B1B1B1"/>
<path d="M89.8582 46.333C83.1447 48.3205 76.1038 49.1922 69.1395 49.7152C60.9982 50.3219 52.8013 50.3638 44.6461 49.8617C37.452 49.4154 30.1813 48.5994 23.217 46.6747C15.1314 44.4362 5.88287 40.4054 2.90215 31.8417C1.50233 27.8109 1.95501 23.5848 4.44126 20.091C6.7743 16.8134 10.4027 14.6027 13.9614 12.8802C18.2445 10.8091 22.7991 9.233 27.3398 7.85221C32.1313 6.40168 37.0132 5.258 41.9509 4.42116C51.7288 2.76839 61.7295 2.37787 71.6048 3.22168C76.6052 3.64708 81.5707 4.40721 86.4736 5.48813C90.6382 6.40866 94.7889 7.56629 98.6959 9.28879C102.603 11.0113 106.078 13.1173 109.01 16.0602C112.144 19.1984 114.818 23.4523 114.825 28.0201C114.825 32.2531 112.471 36.0887 109.414 38.8572C105.89 42.0442 101.308 43.7179 96.7738 44.8616C94.4825 45.4404 92.1634 45.8937 89.8443 46.34C88.528 46.591 89.0852 48.6134 90.4014 48.3554C99.65 46.5701 110.208 44.1363 115.048 35.0914C117.311 30.8654 117.409 26.1791 115.508 21.7926C113.711 17.6572 110.57 14.2331 106.969 11.5831C99.5873 6.1576 90.2204 3.84931 81.3339 2.35695C71.0198 0.620499 60.4759 0.236946 50.0504 1.24813C39.6805 2.25234 29.4361 4.5676 19.6722 8.23576C12.0532 11.095 2.3868 15.2094 0.346261 24.0591C-0.684453 28.5362 0.645725 33.2713 3.21555 36.9883C5.95251 40.9563 10.0266 43.7388 14.3654 45.7054C21.4898 48.9272 29.2063 50.3987 36.9297 51.2773C45.3495 52.2327 53.8668 52.4698 62.3284 52.1769C70.198 51.898 78.1304 51.2006 85.8329 49.52C87.372 49.1852 88.8972 48.8017 90.4084 48.3554C91.6968 47.9718 91.1466 45.9564 89.8513 46.34L89.8582 46.333Z" fill="#B1B1B1"/>
</g>
<defs>
<clipPath id="clip0_129_420">
<rect width="116.861" height="51.5983" fill="white" transform="translate(0 0.697266)"/>
</clipPath>
</defs>
</svg>

<svg width="117" height="53" fill="none" xmlns="http://www.w3.org/2000/svg"><g clip-path="url(#a)" fill="#B1B1B1"><path d="M37.913 26.758a5.99 5.99 0 0 0 .613 1.534 5.39 5.39 0 0 0 1.024 1.297c.411.384.892.69 1.449.92l-1.038 1.5a5.219 5.219 0 0 1-1.95-1.423 6.967 6.967 0 0 1-1.233-2.14c-.3.871-.71 1.652-1.246 2.336a5.2 5.2 0 0 1-1.964 1.555l-1.08-1.513a4.744 4.744 0 0 0 1.456-.998c.41-.418.759-.871 1.03-1.373.272-.503.481-1.047.613-1.611a7.581 7.581 0 0 0 .202-1.709v-.732h-2.764v-1.57h7.43v1.57H37.72v.732c0 .537.07 1.08.201 1.625h-.007zm3.761 8.082V21.562h1.901V34.84h-1.9zM47.446 34.602v-3.947h1.845v-1.771c-.585.028-1.149.049-1.699.056-.55.007-1.072.014-1.567.014l-.244-1.514c.606 0 1.254 0 1.943-.014.69-.006 1.4-.027 2.131-.055.732-.028 1.463-.07 2.201-.126a50.382 50.382 0 0 0 2.159-.209l.132 1.353c-.515.098-1.037.174-1.56.23-.522.056-1.058.105-1.602.146v2.511h-1.824v1.813h7.932v1.514h-9.847zm1.267-8.026a3.612 3.612 0 0 1-1.044-.481 2.288 2.288 0 0 1-.683-.74 1.963 1.963 0 0 1-.244-.969c0-.356.084-.676.244-.97.16-.292.39-.543.683-.753.292-.209.64-.37 1.044-.48.404-.12.85-.175 1.337-.175.488 0 .92.056 1.324.174.404.119.752.28 1.044.482.293.209.523.453.683.753.16.293.243.62.243.969s-.083.677-.243.97a2.22 2.22 0 0 1-.683.739c-.292.209-.64.37-1.044.48a4.673 4.673 0 0 1-1.324.175c-.48 0-.933-.056-1.337-.174zm.237-2.936a.823.823 0 0 0-.41.739c0 .32.138.572.41.732.272.16.64.244 1.1.244.46 0 .801-.083 1.08-.244a.797.797 0 0 0 .418-.732c0-.32-.14-.572-.418-.74-.279-.166-.64-.25-1.08-.25-.438 0-.828.084-1.1.25zm8.044-2.085v10.063h-1.901v-1.053h-2.494v-1.297h2.494v-7.713h1.9zM66.724 25.035h-7.716v-1.513h2.939v-1.73h1.901v1.73h2.876v1.513zm-2.486.984c.41.153.76.376 1.059.655.299.286.529.62.696 1.004.167.384.25.81.25 1.27 0 .46-.083.9-.25 1.29-.167.39-.404.725-.696 1.01-.3.287-.648.503-1.059.656-.41.154-.85.23-1.33.23-.48 0-.926-.076-1.337-.23a3.106 3.106 0 0 1-1.073-.655c-.3-.286-.536-.62-.703-1.011a3.229 3.229 0 0 1-.25-1.29c0-.475.083-.886.25-1.27.167-.383.404-.718.703-1.004.3-.286.662-.502 1.073-.655.41-.154.856-.23 1.337-.23.48 0 .926.076 1.33.23zm-.216 4.128c.286-.286.425-.683.425-1.206 0-.523-.14-.893-.425-1.186-.285-.286-.655-.432-1.114-.432-.46 0-.836.14-1.121.425-.286.286-.432.684-.432 1.207s.146.92.432 1.2c.285.278.661.418 1.12.418.46 0 .837-.14 1.115-.426zm5.46 4.693h-1.901V21.562h1.901v5.189h1.901v1.569h-1.9v6.52zM79.134 25.823a8.849 8.849 0 0 1-.989 2.601c-.467.816-1.086 1.57-1.866 2.267-.78.697-1.755 1.332-2.94 1.896l-.995-1.499c.842-.405 1.574-.837 2.187-1.304a7.962 7.962 0 0 0 1.539-1.52c.41-.551.73-1.137.96-1.772.224-.634.37-1.318.44-2.05h-4.423V22.93h6.365c0 1.011-.097 1.973-.285 2.9l.007-.006zm2.319 8.996V21.54h1.915v13.278h-1.915z"/><path d="M89.858 46.333c-6.713 1.988-13.754 2.86-20.719 3.382-8.14.607-16.338.649-24.493.147-7.194-.447-14.465-1.263-21.429-3.187-8.086-2.239-17.334-6.27-20.315-14.833-1.4-4.031-.947-8.257 1.54-11.751 2.332-3.278 5.96-5.488 9.52-7.21 4.282-2.072 8.837-3.648 13.378-5.029a119.139 119.139 0 0 1 14.61-3.43 117.98 117.98 0 0 1 29.655-1.2c5 .425 9.966 1.185 14.869 2.266 4.164.92 8.315 2.078 12.222 3.8 3.907 1.723 7.382 3.83 10.314 6.772 3.134 3.138 5.808 7.392 5.815 11.96 0 4.233-2.354 8.069-5.411 10.837-3.524 3.187-8.106 4.86-12.64 6.005-2.291.578-4.61 1.032-6.93 1.478-1.316.251-.759 2.273.557 2.015 9.249-1.785 19.807-4.219 24.647-13.264 2.263-4.226 2.361-8.912.46-13.298-1.797-4.136-4.938-7.56-8.539-10.21C99.587 6.158 90.22 3.85 81.334 2.357A119.296 119.296 0 0 0 50.05 1.248c-10.37 1.004-20.614 3.32-30.378 6.988C12.053 11.095 2.387 15.209.346 24.059c-1.03 4.477.3 9.212 2.87 12.93 2.737 3.967 6.81 6.75 11.15 8.716 7.124 3.222 14.84 4.694 22.564 5.572 8.42.956 16.937 1.193 25.398.9 7.87-.279 15.802-.976 23.505-2.657a64.67 64.67 0 0 0 4.575-1.165c1.289-.383.739-2.399-.557-2.015l.007-.007z"/></g><defs><clipPath id="a"><path fill="#fff" transform="translate(0 .697)" d="M0 0h116.861v51.598H0z"/></clipPath></defs></svg>
